svgs/sharp-regular/file-shield.svg

<svg xmlns="http://www.w3.org/2000/svg" viewBox="0 0 576 512"><!--! Font Awesome Pro 6.6.0 by @fontawesome - https://fontawesome.com License - https://fontawesome.com/license (Commercial License) Copyright 2024 Fonticons, Inc. --><path d="M48 464l264.6 0c13.9 18 30.4 34.3 49.5 48L336 512 48 512 0 512l0-48L0 48 0 0 48 0 256 0 384 128l0 80.3-48 18.6 0-66.9-112 0 0-112L48 48l0 416zM527.3 312.4L432 275.5l0 184.9c56.5-26.3 90.2-87 95.3-148zM432 512c-96-32-144-130.2-144-216l0-16.2L432 224l144 55.8 0 16.2c0 85.8-48 184-144 216z"/></svg>

<svg xmlns="http://www.w3.org/2000/svg" viewBox="0 0 576 512"><!--! Font Awesome Pro 6.4.2 by @fontawesome - https://fontawesome.com License - https://fontawesome.com/license (Commercial License) Copyright 2023 Fonticons, Inc. --><path d="M48 464H312.6c13.9 18 30.4 34.3 49.5 48H336 48 0V464 48 0H48 256L384 128v80.3l-48 18.6V160H224V48H48V464zM527.3 312.4L432 275.5V460.4c56.5-26.3 90.2-87 95.3-148zM432 512c-96-32-144-130.1-144-216V279.7L432 224l144 55.8V296c0 85.9-48 184-144 216z"/></svg>
